X: 20
T:Alborada de Rosalía de Castro (completa)
M:2/4
L:1/16
Q:150
B:Leccións de Gaita. OTERO COVELO
K:C
c8- | c4 B2A2 | G8 | ABAG FGAF | G3F EFGE |
F3E DEFD | E3D CDEC |D3C B,CDB, |C2 .C2.C2 | D3B, C2D2 |
E3C D2E2 | F3D E2F2 | G3E F2G2 | A3F G2A2 |B3G A2B2 |c6 G2 |
c3B ABcA | B3A GABG | A3G FGAF | G3F EFGE | F3E DEFD |
E3D CDEC |D3C B,CDB, | C2.C2.C2.C2 | F3D B,CDB, | C2.C2.C2.C2|
D3C B,CDB, | C2.C2.C2.C2 | F3D B,CDB, | C2.C2.C2.C2| D3C B,CDB, | C2.C2.
C2D2|
_EFED CDEC | D_EDB, CB,CD | _EFED CDEC | D_EDB, CB,CD |
_EFED CDEC | D_EDC B,CDB, | C6 G2 | c3B ABcA | BcBA GABG |
ABAG FGAF | GAGF EFGE | FGFE DEFD | EFED CDEC | DEDC B,CDB, |
C8 | c3B GABG | c3G .G2.G2 | c2BA GABG | c3G .G2.G2|
AGFE DEFD |E3.E .C2.C2 |DEDC B,CDB, | C4 G2A2  _BcBA GABG |
A4G2F2 | GAGF EFGE |F4 FEDF | EFED CDEC | D3C .C2.C2|
DEDC B,CDB, | C4 .C2.C2 | D3B, C2D2 | E3C D2E2 | F3D E2F2 | G3E F2G2 |
A3F G2A2 | B3G A2B2 | c4 c4- | c2G2 .G2.G2| cdcB ABcA |
BcBA GABG | ABAG FGAF | GAGF EFGE | FGFE DEFD |
EFED CDEC | DEDC B,CDB, |C4 E2G2| c3c B2d2 | c3G E2G2 |
c3c B2d2| c3G E2G2 | A3(3B/A/G/ A2B2 | A3(3B/A/G/ A2B2 | c6G2 |
c3B ABcA | B3AGABG | A3G FGAF | G3F EFGE | F3E DEFD |
E3D CDEC | D3C B,CDB, | C8 |c3B GABG | c3G .G2.G2| 
c2BA GABG | c3G .G3.G3| AGFE DEFD | E3C .C2.C2| DEDC B,CDB, |
C4 G2A2 | _BcBA GABG | A4 .G2.G2| GAGF EFGE | F4 D2E2 |
(5FGFED CDEC | D4 B,2C2| DEDC B,CDB, | C3G C4- | C3C C2C2| 
.CDEC B,CDB, | C8- | c2 ||

